X: 120560
T: Loughmountain
S: "Treoir"
C: Eddie O'Donnell
Z: B.Black 
M: 4/4
L: 1/8
R: reel
K: Edor
B3 E FEFA|Bdef dBAF|A3 F FDFA|dfed BAFA |
B3 E FEFA|Bdef dBAF|1 ABde fedf|edBA BE E2 :|2\
ABde f2 ef|dBAF BE E2 ||
e3 d BABd|egfg edB^c|d3 B AFDF|dfed BAFA|
e3 d BABd|egfg edB^c|d3 c defe|dBAF BE E2 :|
